svg/展开.svg

<svg width="24" height="24" viewBox="0 0 24 24" fill="none" xmlns="http://www.w3.org/2000/svg"><path d="M21.9648 5.14288H19.9559C19.8193 5.14288 19.6907 5.20985 19.6103 5.31967L12.0005 15.809L4.39069 5.31967C4.31033 5.20985 4.18176 5.14288 4.04515 5.14288H2.03622C1.86212 5.14288 1.76033 5.3411 1.86212 5.48306L11.3068 18.5036C11.6496 18.975 12.3514 18.975 12.6916 18.5036L22.1362 5.48306C22.2407 5.3411 22.1389 5.14288 21.9648 5.14288V5.14288Z" fill="#4A4A4A"/></svg>

<svg fill="none" viewBox="0 0 24 24"><path fill="#4A4A4A" d="M21.965 5.143h-2.01a.43.43 0 0 0-.345.177L12 15.809 4.39 5.319a.43.43 0 0 0-.345-.176H2.036a.215.215 0 0 0-.174.34l9.445 13.02a.855.855 0 0 0 1.385 0l9.444-13.02a.213.213 0 0 0-.171-.34"/></svg>
